assets/switch_camera.svg

<svg width="56" height="56" viewBox="0 0 56 56" fill="none" xmlns="http://www.w3.org/2000/svg">
<path d="M28 56C43.464 56 56 43.464 56 28C56 12.536 43.464 0 28 0C12.536 0 0 12.536 0 28C0 43.464 12.536 56 28 56Z" fill="#E2E5EE"/>
<path d="M19.7769 38H35.7456C38.3796 38 40.5225 35.8571 40.5225 33.2231V23.4596C40.5225 20.8256 38.3796 18.6827 35.7456 18.6827H34.0614C33.4633 17.0902 31.9367 16 30.1788 16H25.3441C23.5861 16 22.0592 17.0902 21.4611 18.6827H19.7769C17.1429 18.6827 15 20.8256 15 23.4596V33.2231C15 35.8571 17.1429 38 19.7769 38ZM17.2406 23.4596C17.2406 22.061 18.3783 20.9233 19.7769 20.9233H22.431C22.918 20.9233 23.3342 20.5724 23.4166 20.0924L23.4621 19.827C23.6197 18.9077 24.4111 18.2406 25.3438 18.2406H30.1781C31.1108 18.2406 31.9022 18.9077 32.0598 19.8273L32.1053 20.0927C32.1877 20.5727 32.6039 20.9236 33.0909 20.9236H35.7453C37.1439 20.9236 38.2816 22.0613 38.2816 23.4599V33.2234C38.2816 34.622 37.1439 35.7597 35.7453 35.7597H19.7769C18.3783 35.7597 17.2406 34.622 17.2406 33.2234V23.4596Z" fill="#081132"/>
<path d="M29.8955 27.1117C29.6807 26.8969 29.6807 26.5487 29.8955 26.3339C30.1005 26.1288 30.4271 26.1195 30.6432 26.3059L30.6733 26.3339L31.8023 27.4628C31.7897 26.1258 31.0785 24.8588 29.8772 24.1652C28.3677 23.2936 26.4608 23.545 25.2287 24.7781C25.014 24.993 24.6658 24.9931 24.4509 24.7784C24.236 24.5637 24.2359 24.2154 24.4506 24.0006C26.0347 22.4152 28.4864 22.092 30.4273 23.2126C31.9032 24.0648 32.8036 25.5902 32.8949 27.2239L33.7846 26.3339C33.9896 26.1288 34.3162 26.1195 34.5323 26.3059L34.5624 26.3339C34.7674 26.5389 34.7767 26.8655 34.5903 27.0816L34.5624 27.1117L32.6178 29.0562C32.4128 29.2613 32.0862 29.2706 31.8701 29.0842L31.84 29.0562L29.8955 27.1117Z" fill="#081132" stroke="#081132" stroke-width="0.6"/>
<path d="M31.4509 31.2224C31.6658 31.4371 31.6659 31.7853 31.4512 32.0002C29.8671 33.5856 27.4154 33.9088 25.4745 32.7881C23.9988 31.936 23.0983 30.4108 23.0069 28.7772L22.1172 29.6669C21.9122 29.8719 21.5856 29.8812 21.3695 29.6949L21.3394 29.6669C21.1344 29.4619 21.1251 29.1353 21.3115 28.9192L21.3394 28.8891L23.284 26.9445C23.489 26.7395 23.8156 26.7302 24.0317 26.9166L24.0618 26.9445L26.0063 28.8891C26.2211 29.1039 26.2211 29.4521 26.0063 29.6669C25.8013 29.8719 25.4747 29.8812 25.2586 29.6949L25.2285 29.6669L24.0995 28.5384C24.1123 29.8752 24.8234 31.142 26.0246 31.8355C27.5341 32.7071 29.441 32.4558 30.6731 31.2227C30.8878 31.0078 31.236 31.0077 31.4509 31.2224Z" fill="#081132" stroke="#081132" stroke-width="0.6"/>
</svg>

<svg xmlns="http://www.w3.org/2000/svg" width="56" height="56" fill="none" viewBox="0 0 56 56">
    <path fill="#F6E9D3" d="M28 56c15.464 0 28-12.536 28-28S43.464 0 28 0 0 12.536 0 28s12.536 28 28 28z"/>
    <path fill="#2B2B2B" d="M19.777 38h15.969c2.634 0 4.776-2.143 4.776-4.777V23.46c0-2.634-2.142-4.777-4.776-4.777H34.06C33.463 17.09 31.937 16 30.18 16h-4.835c-1.758 0-3.285 1.09-3.883 2.683h-1.684c-2.634 0-4.777 2.143-4.777 4.777v9.763C15 35.857 17.143 38 19.777 38zM17.24 23.46c0-1.399 1.137-2.537 2.536-2.537h2.654c.487 0 .903-.35.986-.83l.045-.266c.158-.92.95-1.586 1.882-1.586h4.834c.933 0 1.724.667 1.882 1.586l.045.266c.083.48.499.83.986.83h2.654c1.399 0 2.537 1.138 2.537 2.537v9.763c0 1.399-1.138 2.537-2.537 2.537H19.777c-1.399 0-2.536-1.138-2.536-2.537V23.46z"/>
    <path fill="#2B2B2B" stroke="#2B2B2B" stroke-width=".6" d="M29.895 27.112c-.214-.215-.214-.563 0-.778.206-.205.532-.215.748-.028l.03.028 1.13 1.129c-.013-1.337-.725-2.604-1.926-3.298-1.51-.871-3.416-.62-4.648.613-.215.215-.563.215-.778 0-.215-.214-.215-.563 0-.777 1.584-1.586 4.035-1.909 5.976-.788 1.476.852 2.377 2.377 2.468 4.01l.89-.89c.205-.204.531-.213.747-.027l.03.028c.205.205.215.532.028.748l-.028.03-1.944 1.944c-.205.205-.532.215-.748.028l-.03-.028-1.945-1.944zM31.45 31.222c.216.215.216.563.001.778-1.584 1.586-4.036 1.909-5.977.788-1.475-.852-2.376-2.377-2.467-4.01l-.89.889c-.205.205-.531.214-.748.028l-.03-.028c-.205-.205-.214-.532-.027-.748l.027-.03 1.945-1.944c.205-.206.532-.215.748-.028l.03.027 1.944 1.945c.215.215.215.563 0 .778-.205.205-.531.214-.747.028l-.03-.028-1.13-1.129c.013 1.337.724 2.604 1.926 3.297 1.51.872 3.416.62 4.648-.612.215-.215.563-.215.778 0z"/>
</svg>
